X:5
T:Karl XII:s vals efter Anton Andersson
T:(SvL Bohuslän 5)
O:Skee, Bohuslän
S:Anton Larsson
B:Svenska Låtar Bohuslän
Z:Till abc Jonas Brunskog
R:Vals
M:3/4
L:1/8
K:D
(DF) (AF) (AF)|(DG) (BG) (BG)|(Ec) (cA) (Bc)|(df) (ef) d2|
(DF) (AF) (AF)|(DG) (BG) (BG)|(Ec) (cA) (Bc)|d2-L[dD]2 z2:|
|:d>(c d2) fa|(gf) .e.f .g.a|(ba) .f.a .g.e|(ed) (fd) LA2|
d>(c d2) fa|(gf) .e.f .g.a|(ba) .f.a .g.e|d2{/D}-Ld2 z2:|

